X:1
T:“Ohayo”
T:[Audiveris detected movement]
T:No. I “Ohayo” (Good Morning) 
T:Kosaku Yamada
Z:No. I
%%score { ( 1 2 ) | ( 3 4 ) }
L:1/8
Q:1/4=112
M:3/4
K:G
V:1 treble nm="Piano"
V:2 treble 
V:3 bass 
V:4 bass 
V:1
"^Moderato grazioso"!mf!"_pesante" (B2!<(! d2!<)! e2) | (de!>(! dB!>)! G2) |!<(! (G3 A!<)! Bd | %3
!>(! A6)!>)! |!p! (B2 d2 e2) | (de dB!f!!>(! g!>)!e) |!mf!"_grazioso" (Bd .B2)!p! .A2 | G6 | %8
!f!!<(! (B2 d2!<)! e2) | (d!>(!e d!>)!B G2) | (G3!<(! A B!<)!d | A6) |!mf!!<(! (B2 d2 e2) | %13
 de dB!<)!!ff!{/G} g!>(!e!>)! |!mf! (Bd .B2)!p! .A2 | G4!f! (Bd | A4)!p! (B"_poco a poco rit."d | %17
 A4)!<(! (B!<)!d | e!>(!d BG!>)! [FA]2 |!pp! A6) |!mf!"_a tempo"!<(! (B2 d2!<)! e2 | %21
!f! ge d!>(!B G!>)!A) | (B2 d2) (A2 | G4)!p! (A2 |"_rit." G4)"_e" A2 |"_dim." G6 |!pp! A6 | %27
!mf![Q:1/4=60]"^Lento"!<(! (B2 d2 e2)!<)! |"_l.h.""_molto rit."!>(! z6 | %29
 z2!>)!"^l.h." !fermata!g4 |] %30
[K:D][M:2/4]"^No. II\n“Konnichi-wa”\n(Good Day)\n"!p![Q:1/4=160]"^Allegro" z .e!<(! .f.b | %31
 .d.e .f.a!<)! |!f!{bd'} (!>!b2 .a).a | .a z z2 |!p! z .e!<(! .f.b | .d.e .f!<)!.a | %36
!f!{ef} !>!e z!p! .e.e | .e.A[Q:1/4=30] z2 |!p!"_a tempo"[Q:1/4=160] z .E!<(! .F.A | %39
 .D.E .F!<)!.A |!f!{Bd} (B2!>(! .A).A | .A!>)! z z2 |!f!!>(!{Bd} (!>!B2 A).e!>)! |{Bd} (B2 A).e | %44
!ff! (!>!D/B,/D/B,/ D/B,/D/B,/) | z .[F,D] [F,D]2 :|!mf!!<(! (!>!D3!<)!!>(! E- | EF A!>)!F | A3 F | %49
 A3) (B |!<(! d3 e- | ef a!<)!f | b)(f/a/ fe | d)A!f! z2 | z4 | z4 |!p! z .E .F.A | %57
!<(! .D.E .F!<)!.A |{/e} !>!d.B .B.B | [FA]4 | z4 | z4 | z4 | z4 | %64
!mf!{/E} !>!D[I:staff +1].B,[I:staff -1] z2 | z2 D2- | D4 | z2{/^a} !>!b z | z2 z3/2 (b/4d'/4 | %69
!ff!"_molto rit." e'2) z2 | z4 |!mf! !fermata![F,D]4- | [F,D]4 |] %73
[K:G][M:4/4]"^No. III\n“Konban-wa”\n(Good Evening)\n"!mf![Q:1/4=69]"^Andante"{/^d} .[Be] z!p! ([GB]!>(![GB] [F^A]4)!>)! | %74
!mf!{/^d} .[Be] z!p! ([GB]!>(![GB] [F^A]4)!>)! | z2 ([GB]4 [EG]2 | [GB]8 | %77
 [G,E]2)!<(! !tenuto!e2 !tenuto!e2!<)! !tenuto!e2 | (e2 f2 e2 c2 | %79
!<(! .e) z!<)!!mf! ([Ac]!>(![Ac] .e) z!>)! ([Ac]2 | [GB]8-) | %81
 [GB]2!p!!>(! (!tenuto![EG]2 !tenuto![GB]2 !tenuto![EG]2 | %82
 !tenuto![GB]2)!>)! z!mf! (^c'/4e'/4c'/4b/4 g4-) | %83
 g2!pp! (!tenuto![EG]2 !tenuto![GB]2 !tenuto![EG]2 |"_rit."!>(! [GB]8!>)! | %85
"_a tempo" [G,E]2)!p!!<(! !tenuto!e2 !tenuto!e2 !tenuto!A2!<)! | %86
!f!!>(! (6:4:6(!>!=f/^g/f/g/f/g/ (6:4:6f/g/f/g/f/g/ (6:4:6f/g/f/g/f/g/{fg} f>e)!>)! | %87
 z2!<(! [Ac][Ac] ([Ac]!<)![ce])!>(! ([ce][Ac])!>)! | z2!>(! !>![GB]6- | %89
 [GB]2!>)!!pp!!<(! ([EG][GB]) ([GB][CE])!<)!!>(! ([CE][EF])!>)! |"_poco rit." [EF]8 | %91
 z2!mf!!<(! !tenuto!e2 !tenuto!e2 !tenuto!e2!<)! | %92
!f!!>(! (6:4:6(!>!=f/^g/f/g/f/g/ (6:4:6f/g/f/g/f/g/ (6:4:6f/g/f/g/f/g/{fg} f>e)!>)! | %93
 z2!>(! (!tenuto![gb]!tenuto![gb] !tenuto![gb]!tenuto![eg] !tenuto![eg]!tenuto![gb]) | %94
 [gb]2!>)!"_poco rit." ([EG][GB] [GB]4) | z2!>(! !>!B4- BE-!>)! | E8 | z2!>(! !>!B4- BE-!>)! | E8 | %99
 z4{/^d} !>![Be]4- |"_rit. e dim."!>(! [Be]4{/^d'} e'4-!>)! |!>(! e'8!>)! |] %102
[K:Eb][M:4/4]"^No. IV\n“Ozasuim”\n(Good night)\n"!pp![Q:1/4=50]"^Lento"!<(! z2 (B,B,!<)! | %103
 C2) (B,B, C2) (B,C | G,2) ((F,2 G,4)) |: z2!<(! (BB ce!<)! c2- ||[M:2/4] c2) (BB || %107
[M:4/4]!>(! c8)!>)! || z2!>(! (BB c2)!>)! (Bc ||[M:2/4]!>(!!>(! G2) (FF || x4!>)!!>)! %110
[M:4/4] G6)!pp! (FF | G2) (FF G2) (F2 |!>(! G8)!>)! :|[K:C]!mf! (G2!<(! GG GA!<)!Ac) | G2 GA C4 | %115
!p!!<(! (G2 GG!<)! GAAc- | c2)!>(! (GA!>)! c4) |!pp!!<(! (G2 GG GAA!<)!c) | (G2!>(! GA E2!>)! D2) | %119
 (G2 GG GAAc) |!>(! e2 (GA!>)! c2)!p!!<(! (_B,!<)!B, | C2)!>(! (_B,B, C2) (B,B, | %122
 C2) (_B,B,!>)! C2) (_BB |!pp! c2)!<(! (_BB c2)!<)! (B"_rit."B | %124
"_molto e morendo" c2) (_BB!>(! c4-) | c2!>)! (_B!pp!B !>!f4- |!>(! f4)!>)! z4 |] %127
V:2
 G6- | G6 | (G6 | F6) | G6 | G4 G2 | G4 D!>(!E!>)! | D6 | G6- | G6 | (G6 | F6) | G6 | x4 G2- | %14
 G4 D!>(!E!>)! | D4 (G2 | F4) (G2 | F4) x2 | x6 | (D"_riten molto"E D4) | G6 | G4 x2 | x4 DE | %23
 D4 E2 | D4 E2 | D6 | E6 | (F6 | E6) | x2 [B,G]4 |][K:D][M:2/4] (d2 c2 | B2 A2) | (G2 E2 | %33
 F).E .F.A | (d2 c2 | B2 A2) | ([^GB]2 [Bd]2) | [Ac] z x2 | x4 | x4 | x4 | x4 | x4 | x4 | x4 | %45
 x4 :| x4 | x4 | x4 | x4 | x4 | x4 | x4 | x2 (!>!D2- | D4- | D4- | D2) C2 | x4 | x4 | x4 | x4 | %61
 x4 | x4 | x4 | x4 | x4 | x4 | x2{/^A} !>!B z | x4 | x4 | x4 | x4 | x4 |][K:G][M:4/4] x8 | x8 | %75
 x8 | x8 | x8 | x8 | x8 | x8 | x8 | x8 | x8 | x8 | x8 | x8 | x8 | x8 | x8 | x8 | x8 | x8 | x8 | %94
 x8 | x8 | G,8 | x8 | G,8 | x8 | x4 !fermata!b4- | b8 |][K:Eb][M:4/4] x4 | x8 | x8 |: x8 || %106
[M:2/4] x4 ||[M:4/4] x8 || x8 ||[M:2/4] x4 ||[M:4/4] x8 | x6 (F2- | F4 _E2) D2 :|[K:C] (E4 D4) | %114
 (E4 E2) D2 | (E4 D4) | E2 DD E4 | (E4 D4) | (E4 C4) | (E4 D4) | E2 DD E2 x2 | x8 | x8 | x8 | x8 | %125
 x4 c4- | c4 x4 |] %127
V:3
!ped! [G,,D,]6 |!<(! (B,2 D2 E2)!ped-up!!<)! | (D!>(!E D!>)!B, G,2) |!>(! (D,E, D,A,, D,2)!>)! | %4
!ped! (G,,3 D, G,A,) | (B,2 E2 E2)!ped-up! | (DE .D2) [D,C]2 | [G,B,]6 |!ped! [G,,D,]6 | %9
!<(! (B,2 D2 E2)!ped-up!!<)! | (D!>(!E DB,!>)! G,2) |!>(! (D,E, D,A,, D,2)!>)! | (G,,3 D, G,A,) | %13
 (B,2 D2 E2) | (DE .D2) .[D,C]2 | [G,B,]4 z2 |!p! (DA, D2) z2 |!pp! (D,A,, D,2) z2 | %18
 G,,2 D,E, D,2 | D,6 | (G,,2 D,2 G,A,) | (B,2 D2 E2) | (GEDB,) C2 | B,4 C2 | B,4 C2 | [G,B,]6 | %26
 C6 | [G,,-D,]6 | z6 | !fermata![G,,D,]6 |][K:D][M:2/4] z4 | z4 | z4 | z4 | z4 | z4 | z4 | %37
 z2"^tenuto" .A,.B, | (D2 C2 | B,2 A,2) | G,2 D,2- | D,A,, .B,,.A,, | !>!D,4 | D,4 | %44
 (G,,/D,/G,,/D,/ G,,/D,/G,,/D,/) | z .[D,,A,,] [D,,A,,]2 :| z .[D,,A,,] !>![D,,A,,]2- | %47
 [D,,A,,][D,,A,,] [D,,A,,][D,,A,,] |!<(! [D,,A,,]!<)!!>(! !>![D,,A,,]2 [D,,A,,] | %49
 [D,,A,,][D,,A,,] [D,,A,,]!>)! z | [D,,A,,] [D,,A,,]2 [D,,A,,]- | %51
 [D,,A,,][D,,A,,] [D,,A,,][D,,A,,] |!ff! [D,,A,,] z z2 | z4 | z4 | z4 | z4 | B,2 A,2 | z2 (A,2- | %59
 A,!>(!B,) A,2-!>)! | A,4- | A,4 |!pp! z .E,!<(! .F,A, | .D,.E, .F,!<)!.A, | [G,,D,] z .B,.B, | %65
 z2 F,2- | F,4 | z4 | z4 |!ped! [D,,A,,]4- | [D,,A,,]4- | [D,,A,,]4-!ped-up! | [D,,A,,]4 |] %73
[K:G][M:4/4] .E,, z (B,,2!ped! F,2 C,2)!ped-up! |!ped! .E,, z (B,,2!ped-up!!ped! F,2 C,2)!ped-up! | %75
!p!!ped! (E,,2 B,,2) (G,2 C,2)!ped-up! |!ped! (E,,2 B,,2) (G,2 C,2)!ped-up! | %77
!ped! (E,,2 B,,2) (G,2 C,2)!ped-up! |!ped! (E,,2 B,,2) (G,2 C,2)!ped-up! | %79
!ped! (E,,2 B,,2) (F,2 C,2)!ped-up! |!ped! (E,,2 B,,2) (G,2 C,2)!ped-up! | %81
!ped! (E,,2 B,,2) (G,2 C,2)!ped-up! | (E,,2 B,,2)!>(! (G,2 C,2)!>)! | (E,,2 B,,2) (G,2 C,2) | %84
 (E,,2!>(! B,,2) (G,2 C,2)!>)! | (E,,2 B,,2) (G,2 C,2) | (E,,2 B,,2) (^F,2 C,2) | %87
!p! (E,,2 B,,2) (F,2 C,2) |!mf!!ped! (E,,2 B,,2) (G,2 C,2)!ped-up! | %89
!ped! (E,,2 B,,2) (G,2 C,2)!ped-up! |!>(!!ped! (E,,2 B,,2) (F,2 C,2)!>)!!ped-up! | %91
!ped! (E,,2 B,,2) (G,2 C,2)!ped-up! |!ped! (E,,2 B,,2) (G,2 C,2)!ped-up! | %93
!p!!ped! (E,,2 B,,2) (G,2 C,2)!ped-up! |!ped! (E,,2 B,,2) (G,2 C,2)!ped-up! | %95
!mp!!ped! (E,,2 B,,2) (G,2 C,2)!ped-up! |!ped! (E,,2 B,,2) (G,2 C,2)!ped-up! | %97
!p!!ped! (E,,2 B,,2) (G,2 C,2)!ped-up! |!ped! (E,,2 B,,2) (G,2 C,2)!ped-up! |!mf! B,,8- | B,,8 | %101
!pp!{/A,,} B,,8 |][K:Eb][M:4/4] z2 B,2 | =A,2 _A,2 G,2!>(! (_G,2 | F,=E, _E,4 D,!>)!_D,) |: %105
!p!!ped! (C,2 G,2 C2) (E2 ||[M:2/4] C2)!ped-up! (G,2 ||[M:4/4]!ped! C,2)!>(! !>!G,6!ped-up! || %108
!p!!ped! (C,2!>)!!>(! G,2 C2)!>)! (E2 ||[M:2/4] C2)!ped-up! (G,2 ||[M:4/4] C,2)!>(! !>!G,6!>)! | %111
 C,2 (A,2 C,2) (A,2 | C,8) :|[K:C] z2 C,4 !>!C,2- | C,2 !>!C,4 !>!C,2- | C,2 C,4 C,2- | %116
 C,2 C,4 C,2 | z2 C,4 C,2- | C,2 C,4 (C,2 | C,2) C,4 C,2- | C,2 C,2 z2 (_B,2 | %121
 =A,2) (_A,2 G,2) (_G,2 | F,2 _D,2 C,2) z2 |[K:treble] =A2 _A2 G2 _G2 | F8- | F2 F6- | F4 z4 |] %127
V:4
 x6 | x6 | x6 | x6 | x6 | x6 | x6 | x6 | x6 | x6 | x6 | x6 | x6 | x6 | x6 | x6 | x6 | x6 | x6 | %19
 x6 | x6 | x6 | x4 (D,2 | G,4) (D,E, | G,4) D,E, | x6 | D,6 | x6 | x6 | x6 |][K:D][M:2/4] x4 | x4 | %32
 x4 | x4 | x4 | x4 | x4 | x4 | x4 | x4 | x4 | x4 | (G,,2 [D,,A,,]2) | (G,,2 [D,,A,,]2) | x4 | x4 :| %46
 x4 | x4 | x4 | x4 | x4 | x4 | x4 | x4 | x4 | x4 | x4 | x4 | G,4 | (D,4- | D,4- | D,4 | D,2 C,2 | %63
 B,,2 A,,2) | x2 z2 | x2 [D,,A,,]2- | [D,,A,,]4 | x4 | x4 | x4 | x4 | x4 | x4 |][K:G][M:4/4] x8 | %74
 x8 | x8 | x8 | x8 | x8 | x8 | x8 | x8 | x8 | x8 | x8 | x8 | x8 | x8 | x8 | x8 | x8 | x8 | x8 | %93
 x8 | x8 | x8 | x8 | x8 | x8 | E,,8- | E,,8 | !fermata!E,,8 |][K:Eb][M:4/4] C,4- | C,8- | C,8 |: %105
 x8 ||[M:2/4] x4 ||[M:4/4] x8 || x8 ||[M:2/4] x4 ||[M:4/4] x8 | x8 | x8 :|[K:C] ([C,,G,,]4 F,,4) | %114
 ([C,,G,,]4 F,,4) | ([C,,G,,]4 F,,4) | ([C,,G,,]2 F,,2) [C,,G,,]4 | ([C,,G,,]4 F,,4) | %118
 ([C,,G,,]4 F,,4) | ([C,,G,,]4 F,,4) | [C,,G,,]2 F,,2 [C,,G,,]2 C,2- | C,8- | C,4 z4 | %123
[K:treble] x8 | z2 (_D2 C4- | C2) ((_D2 !>!C4-) | C4) x4 |] %127

